X: 1
T: Eliyahu HaNavi
M: C
L: 1/8
K: Gm^F
%%indent 200
"Intro"c/d/c/B/ | "Cm"c4 z2 e/d/c/B/ | "D"A4 z c/d/c/B/ | "Cm"c4 z2 e/d/c/e/ | "D"d4 z4 ||
[| "D"D2 D2 "Cm"E2 C2 | "D"D2 E2 F2 G2 | "Cm"E2 C2 "D"D4- | D2  z2 z3 D | "Gm"G2 GG G2 A2 | "D"FG FE F3 D |
